svgs/sharp-regular/landmark-dome.svg

<svg xmlns="http://www.w3.org/2000/svg" viewBox="0 0 512 512"><!--! Font Awesome Pro 6.6.0 by @fontawesome - https://fontawesome.com License - https://fontawesome.com/license (Commercial License) Copyright 2024 Fonticons, Inc. --><path d="M280 0l0 24 0 9.5C369.5 44.6 439.9 117.4 447.3 208l8.7 0 24 0 0 48-24 0-8 0-48 0-288 0-48 0-8 0-24 0 0-48 24 0 8.7 0C72.1 117.4 142.5 44.6 232 33.5l0-9.5 0-24 48 0zM112.9 208l286.2 0c-8-72-69-128-143.1-128s-135.2 56-143.1 128zm-.9 80l0 96 64 0 0-96 48 0 0 96 64 0 0-96 48 0 0 96 64 0 0-96 48 0 0 96 8 0 24 0 0 48-24 0L64 432l-24 0 0-48 24 0 0-96 48 0zM8 464l24 0 456 0 24 0 0 48-24 0L32 512 8 512l0-48z"/></svg>

<svg xmlns="http://www.w3.org/2000/svg" viewBox="0 0 512 512"><!--! Font Awesome Pro 6.4.0 by @fontawesome - https://fontawesome.com License - https://fontawesome.com/license (Commercial License) Copyright 2023 Fonticons, Inc. --><path d="M280 0V24v9.5C369.5 44.6 439.9 117.4 447.3 208H456h24v48H456h-8H400 112 64 56 32V208H56h8.7C72.1 117.4 142.5 44.6 232 33.5V24 0h48zM112.9 208H399.1c-8-72-69-128-143.1-128s-135.2 56-143.1 128zm-.9 80v96h64V288h48v96h64V288h48v96h64V288h48v96h8 24v48H456 64 40V384H64V288h48zM8 464H32 488h24v48H488 32 8V464z"/></svg>
